symbols/web/rotate_left/materialsymbolsrounded/rotate_left_wght200grad200_48px.svg

<svg xmlns="http://www.w3.org/2000/svg" height="48" width="48"><path d="M8.65 23.95q-.6 0-.925-.375-.325-.375-.175-.925.3-1.65.9-3.1.6-1.45 1.5-2.8.25-.4.75-.425.5-.025.9.275.3.3.325.725.025.425-.175.775-.75 1.1-1.275 2.375-.525 1.275-.725 2.575-.15.4-.5.65t-.6.25Zm12 18.7q-1.65-.3-3.125-.925T14.75 40.2q-.45-.25-.5-.725-.05-.475.4-.925.2-.25.6-.25.4 0 .75.15 1.1.75 2.35 1.25t2.6.8q.4.05.675.4.275.35.275.7 0 .6-.4.9-.4.3-.85.15Zm-10.7-7.2q-.9-1.35-1.5-2.825t-.9-3.125q-.15-.5.175-.875.325-.375.875-.375.35 0 .675.25.325.25.475.6.2 1.4.725 2.65Q11 33 11.7 34.15q.25.3.225.75-.025.45-.325.7-.35.3-.875.3t-.775-.45Zm17.4 7.2q-.5.15-.85-.15t-.35-.85q0-.4.225-.675t.675-.475q5-1.15 8.275-5.125Q38.6 31.4 38.6 26.05q0-6.1-4.175-10.35T24.15 11.45H22.5L26 14.9q.35.4.325.825-.025.425-.325.775-.4.4-.85.4-.45 0-.8-.35l-4.9-5q-.3-.2-.425-.5t-.125-.65q0-.35.125-.65.125-.3.425-.55l4.9-4.9q.35-.4.8-.375.45.025.75.375.4.3.4.75t-.4.8l-3.4 3.4h1.7q6.95 0 11.775 4.9t4.825 11.9q0 6.2-3.8 10.775t-9.65 5.825Z"/></svg>

<svg xmlns="http://www.w3.org/2000/svg" height="48" width="48"><path d="M8.65 23.95Q8.05 23.95 7.725 23.575Q7.4 23.2 7.55 22.65Q7.85 21 8.45 19.55Q9.05 18.1 9.95 16.75Q10.2 16.35 10.7 16.325Q11.2 16.3 11.6 16.6Q11.9 16.9 11.925 17.325Q11.95 17.75 11.75 18.1Q11 19.2 10.475 20.475Q9.95 21.75 9.75 23.05Q9.6 23.45 9.25 23.7Q8.9 23.95 8.65 23.95ZM20.65 42.65Q19 42.35 17.525 41.725Q16.05 41.1 14.75 40.2Q14.3 39.95 14.25 39.475Q14.2 39 14.65 38.55Q14.85 38.3 15.25 38.3Q15.65 38.3 16 38.45Q17.1 39.2 18.35 39.7Q19.6 40.2 20.95 40.5Q21.35 40.55 21.625 40.9Q21.9 41.25 21.9 41.6Q21.9 42.2 21.5 42.5Q21.1 42.8 20.65 42.65ZM9.95 35.45Q9.05 34.1 8.45 32.625Q7.85 31.15 7.55 29.5Q7.4 29 7.725 28.625Q8.05 28.25 8.6 28.25Q8.95 28.25 9.275 28.5Q9.6 28.75 9.75 29.1Q9.95 30.5 10.475 31.75Q11 33 11.7 34.15Q11.95 34.45 11.925 34.9Q11.9 35.35 11.6 35.6Q11.25 35.9 10.725 35.9Q10.2 35.9 9.95 35.45ZM27.35 42.65Q26.85 42.8 26.5 42.5Q26.15 42.2 26.15 41.65Q26.15 41.25 26.375 40.975Q26.6 40.7 27.05 40.5Q32.05 39.35 35.325 35.375Q38.6 31.4 38.6 26.05Q38.6 19.95 34.425 15.7Q30.25 11.45 24.15 11.45H22.5L26 14.9Q26.35 15.3 26.325 15.725Q26.3 16.15 26 16.5Q25.6 16.9 25.15 16.9Q24.7 16.9 24.35 16.55L19.45 11.55Q19.15 11.35 19.025 11.05Q18.9 10.75 18.9 10.4Q18.9 10.05 19.025 9.75Q19.15 9.45 19.45 9.2L24.35 4.3Q24.7 3.9 25.15 3.925Q25.6 3.95 25.9 4.3Q26.3 4.6 26.3 5.05Q26.3 5.5 25.9 5.85L22.5 9.25H24.2Q31.15 9.25 35.975 14.15Q40.8 19.05 40.8 26.05Q40.8 32.25 37 36.825Q33.2 41.4 27.35 42.65Z"/></svg>
